X: 7219
T: Claire's Crossed Feet
R: slip jig
M: 9/8
K: Dmajor
FGF EFE DFA|G (3GGG GBc dAG|F2 D EFE DFA|GEC A,B,C D2 E|
FGF EFE DFA|G (3GGG GBc dAG|F2 D EFE DFA|GEC A,B,C DEF|
G (3GGG GBc dAG|F3 FBc dAF|E (3EEE EAB cBA|FFF FAB =cBA|
G (3GGG GBc dAG|F3 FBc dAF|E (3EEE EAB cBA|GAG FED AFE|

